X: 1
T: For Ireland I Won't Say Her Name
M: 3/4
L: 1/8
R: waltz
K: Dmaj
|:de | &quot;D&quot;f2A3A|&quot;Em7&quot;B2d3e|&quot;D&quot;f6-|f4de|f2A3A|
&quot;Bm&quot;B2d3f|&quot;A&quot;e6-|e4de|&quot;D&quot;f2A3A|&quot;G&quot;B2g3e|
&quot;D&quot;f6-|f3ded|&quot;G&quot;B2&quot;A&quot;A3A|&quot;G&quot;B2D3&quot;A&quot;e|&quot;D&quot;d6-|d4fg|
&quot;D&quot;a2f2fe|d3fa2|&quot;G&quot;b6|&quot;Bm&quot;d'4b2|
&quot;D&quot;a2f2fe|&quot;Bm&quot;d3efd|&quot;A&quot;e6-|e4ag|&quot;D&quot;f2A3A|
&quot;G&quot;B2g3e|&quot;D&quot;f6-|f3ded|&quot;G&quot;B2&quot;A&quot;A2A|&quot;Em7&quot;Bd3&quot;A&quot;e2|&quot;D&quot;d6-|d4:|
